X: 1
T: East at Glendart
R: jig
M: 6/8
L: 1/8
K: Dmaj
|:BAF AFD|FFF DFA|BAF AFE|FEE E2A|
BAF AFD|FFF DFA|dcB AFE|FDD D2A:|
def d2B|ABA AFA|def d2f|efe edB|
def d2B|ABA ABc|dcB AFE|FDD D2A:|

